_icons/SVG/031-nidoqueen.svg

<svg xmlns="http://www.w3.org/2000/svg" width="32" height="32"><path fill="#71B1E1" d="M23.859 30.394C24.471 29.483 26 28.097 26 26c0-5-4-5-4-5h-4s-.365 11 1 11h5.392a.5.5 0 00.454-.713c-.2-.42-.575-.702-.987-.893z"/><path fill="#7FB8E0" d="M8.097 30.394c-.613-.911-2.141-2.297-2.141-4.394 0-5 4-5 4-5h4s.365 11-1 11H7.563a.5.5 0 01-.454-.713c.201-.42.575-.702.988-.893z"/><path fill="#7FB8E0" d="M16 12c-4.971 0-8 4.029-8 9s3.029 9 8 9V12z"/><path fill="#71B1E1" d="M24 21c0-4.971-3.029-9-8-9v18c4.971 0 8-4.029 8-9z"/><path fill="#C1DDEE" d="M8.034 21.883C8.372 26.439 11.328 30 16 30v-5c-3.138 0-5.962-1.201-7.966-3.117z"/><path fill="#B0D3EA" d="M16 25v5c4.672 0 7.628-3.561 7.966-8.117C21.962 23.799 19.138 25 16 25zm-7.347-.233C9.792 27.854 12.376 30 16 30v-2a9.961 9.961 0 01-7.347-3.233z"/><path fill="#9FC9E4" d="M16 28v2c3.624 0 6.208-2.146 7.347-5.233A9.961 9.961 0 0116 28z"/><path fill="#C1DDEE" d="M17 20.522C17 21.466 18.343 22 20 22s3-.831 3-2.464-1.625-2.853-3-2.464c-1.375.39-3 1.817-3 3.45z"/><path fill="#D2E6F3" d="M15 20.522C15 21.466 13.657 22 12 22s-3-.831-3-2.464 1.625-2.853 3-2.464c1.375.39 3 1.817 3 3.45z"/><path fill="#8EC0E0" d="M16 .544a.495.495 0 00-.439.261l-1.008 1.849a6.24 6.24 0 00-3.078 1.647C10.665 2.799 8.95.744 5.47.06a.496.496 0 00-.508.214l-.055.082a.501.501 0 00.116.678l.622.466S1.145 3 2.145 7c.749 2.997 4.866 3.187 6.884 3.094A11.89 11.89 0 009 10.9c0 4.639 5.25 5.6 7 5.6V.544z"/><path fill="#7FB8E0" d="M23 10.9c0-.272-.011-.541-.029-.806 2.018.093 6.135-.097 6.884-3.094 1-4-3.5-5.5-3.5-5.5l.622-.466a.5.5 0 00.116-.677l-.055-.082A.499.499 0 0026.53.06c-3.48.684-5.195 2.739-6.005 4.241a6.235 6.235 0 00-3.078-1.647L16.439.805A.495.495 0 0016 .544V16.5c1.75 0 7-.961 7-5.6z"/><path fill="#373F3F" d="M23.707 9.111c1.714 0 4.666-.306 5.178-2.354.767-3.066-2.698-4.259-2.846-4.309-1.249-.416-2.66-.128-3.564.83a6.91 6.91 0 00-1.556 2.613l1.585 3.171c.303.025.722.049 1.203.049z"/><path fill="#4896C8" d="M27.385 7.257c.767-3.066-2.698-4.259-2.846-4.309a3.603 3.603 0 00-1.437-.173c.86-.537 1.948-.657 2.937-.327.148.049 3.613 1.242 2.846 4.309-.32 1.279-1.592 1.879-2.92 2.149.688-.354 1.227-.878 1.42-1.649z"/><path fill="#4390BF" d="M27.039 4.449c-.115-.039-.233-.065-.351-.091-.846-.956-2.062-1.38-2.149-1.409a3.603 3.603 0 00-1.437-.173c.86-.537 1.948-.657 2.937-.327.128.043 2.751.949 2.942 3.191-.825-.803-1.863-1.165-1.942-1.191z"/><path fill="#2B3332" d="M22.474 3.278c.245-.259.529-.465.835-.625-.07.041-.142.082-.208.123.478-.04.969.017 1.437.173.086.029 1.303.453 2.149 1.409-1.156-.26-2.393.052-3.213.921a6.903 6.903 0 00-1.556 2.613l-1-2a6.932 6.932 0 011.556-2.614z"/><path fill="#434C4B" d="M8.293 9.111c-1.714 0-4.666-.306-5.178-2.354-.766-3.066 2.698-4.259 2.846-4.308 1.249-.416 2.66-.128 3.564.83a6.91 6.91 0 011.556 2.613l-1.585 3.17a14.82 14.82 0 01-1.203.049z"/><path fill="#529CCF" d="M4.615 7.257c-.766-3.066 2.698-4.259 2.846-4.308a3.608 3.608 0 011.438-.173c-.86-.537-1.948-.657-2.937-.327-.149.049-3.613 1.242-2.847 4.308.32 1.279 1.592 1.879 2.92 2.149-.688-.354-1.227-.878-1.42-1.649z"/><path fill="#4896C8" d="M4.961 4.449c.116-.039.234-.065.351-.091.846-.956 2.062-1.38 2.149-1.409a3.608 3.608 0 011.438-.173c-.86-.537-1.948-.657-2.937-.327-.129.043-2.751.949-2.943 3.191.825-.803 1.863-1.165 1.942-1.191z"/><path fill="#373F3F" d="M9.526 3.278a3.153 3.153 0 00-.835-.625c.07.041.142.082.208.123a3.608 3.608 0 00-1.438.173c-.086.029-1.303.452-2.149 1.409 1.156-.26 2.393.052 3.213.921a6.903 6.903 0 011.556 2.613l1-2a6.912 6.912 0 00-1.555-2.614z"/><path fill="#F7F7F7" d="M20.978 8.595c.472.527.571 1.366.418 2.02a.5.5 0 01-.488.385h-2.404a.5.5 0 01-.415-.781c.47-.674 1.394-1.441 2.373-1.75a.492.492 0 01.516.126z"/><path fill="#8EC0E0" d="M10.379 14.345l-1.311.795A5.001 5.001 0 006.78 20.5l.777 3.496a2 2 0 002.437 1.506l.242-.06a2 2 0 001.492-2.242l-1.349-8.855z"/><path fill="#7FB8E0" d="M21.621 14.345l1.311.795a5.001 5.001 0 012.288 5.36l-.777 3.496a2 2 0 01-2.437 1.506l-.242-.06a2 2 0 01-1.492-2.242l1.349-8.855z"/><path fill="#D2E6F3" d="M16 16.5V13c.701 0 1.791.62 3 .398 1.252-.23 2.643-.613 3.848-1.217C22.064 15.663 17.574 16.5 16 16.5z"/><path fill="#E2EFF7" d="M16 16.5V13c-.701 0-1.791.62-3 .398-1.252-.23-2.643-.613-3.848-1.217C9.936 15.663 14.426 16.5 16 16.5z"/><path fill="#FFF" d="M11.038 8.577c-.486.525-.59 1.376-.434 2.038a.5.5 0 00.488.385h2.404a.5.5 0 00.411-.786c-.475-.678-1.407-1.448-2.392-1.752a.468.468 0 00-.477.115z"/><path fill="#2B3332" d="M20.022 8.648c-.804.368-1.526.998-1.927 1.564a.5.5 0 00.41.788h1.399a.503.503 0 00.492-.387c.148-.632.059-1.437-.374-1.965z"/><path fill="#373F3F" d="M11.978 8.648c-.432.528-.522 1.332-.374 1.965a.503.503 0 00.491.387h1.399a.5.5 0 00.41-.787c-.4-.567-1.123-1.197-1.926-1.565z"/><path fill="#9FC9E4" d="M16 2.401a.495.495 0 00-.416.223L14 5s1 1 2 1V2.401z"/><path fill="#8EC0E0" d="M18 5l-1.584-2.376A.497.497 0 0016 2.401V6c1 0 2-1 2-1z"/></svg>

<?xml version="1.0" encoding="utf-8"?>
<!-- Generator: Adobe Illustrator 23.0.6, SVG Export Plug-In . SVG Version: 6.00 Build 0)  -->
<svg version="1.1" xmlns="http://www.w3.org/2000/svg" xmlns:xlink="http://www.w3.org/1999/xlink" x="0px" y="0px" width="32px"
	 height="32px" viewBox="0 0 32 32" enable-background="new 0 0 32 32" xml:space="preserve">
<g id="icons">
	<g>
		<path fill="#71B1E1" d="M23.859,30.394C24.471,29.483,26,28.097,26,26c0-5-4-5-4-5h-4c0,0-0.365,11,1,11h5.392
			c0.366,0,0.612-0.383,0.454-0.713C24.646,30.867,24.271,30.585,23.859,30.394z"/>
		<path fill="#7FB8E0" d="M8.097,30.394C7.484,29.483,5.956,28.097,5.956,26c0-5,4-5,4-5h4c0,0,0.365,11-1,11H7.563
			c-0.366,0-0.612-0.383-0.454-0.713C7.31,30.867,7.684,30.585,8.097,30.394z"/>
		<path fill="#7FB8E0" d="M16,12c-4.971,0-8,4.029-8,9c0,4.971,3.029,9,8,9V12z"/>
		<path fill="#71B1E1" d="M24,21c0-4.971-3.029-9-8-9v18C20.971,30,24,25.971,24,21z"/>
		<path fill="#C1DDEE" d="M8.034,21.883C8.372,26.439,11.328,30,16,30v-5C12.862,25,10.038,23.799,8.034,21.883z"/>
		<path fill="#B0D3EA" d="M16,25v5c4.672,0,7.628-3.561,7.966-8.117C21.962,23.799,19.138,25,16,25z"/>
		<path fill="#B0D3EA" d="M8.653,24.767C9.792,27.854,12.376,30,16,30v-2C13.091,28,10.48,26.75,8.653,24.767z"/>
		<path fill="#9FC9E4" d="M16,28v2c3.624,0,6.208-2.146,7.347-5.233C21.52,26.75,18.909,28,16,28z"/>
		<path fill="#C1DDEE" d="M17,20.522C17,21.466,18.343,22,20,22s3-0.831,3-2.464c0-1.633-1.625-2.853-3-2.464
			C18.625,17.462,17,18.889,17,20.522z"/>
		<path fill="#D2E6F3" d="M15,20.522C15,21.466,13.657,22,12,22s-3-0.831-3-2.464c0-1.633,1.625-2.853,3-2.464
			C13.375,17.462,15,18.889,15,20.522z"/>
		<path fill="#8EC0E0" d="M16,0.544c-0.172,0-0.344,0.087-0.439,0.261l-1.008,1.849c-1.205,0.256-2.238,0.833-3.078,1.647
			c-0.81-1.502-2.525-3.557-6.005-4.241C5.274,0.02,5.073,0.108,4.962,0.274L4.907,0.356C4.76,0.577,4.811,0.875,5.023,1.034
			L5.645,1.5c0,0-4.5,1.5-3.5,5.5c0.749,2.997,4.866,3.187,6.884,3.094C9.011,10.359,9,10.628,9,10.9c0,4.639,5.25,5.6,7,5.6V0.544z
			"/>
		<path fill="#7FB8E0" d="M23,10.9c0-0.272-0.011-0.541-0.029-0.806c2.018,0.093,6.135-0.097,6.884-3.094c1-4-3.5-5.5-3.5-5.5
			l0.622-0.466c0.212-0.159,0.263-0.457,0.116-0.677l-0.055-0.082c-0.111-0.166-0.312-0.254-0.508-0.215
			c-3.48,0.684-5.195,2.739-6.005,4.241c-0.839-0.814-1.873-1.391-3.078-1.647l-1.008-1.849C16.344,0.631,16.172,0.544,16,0.544
			V16.5C17.75,16.5,23,15.539,23,10.9z"/>
		<path fill="#373F3F" d="M23.707,9.111c1.714,0,4.666-0.306,5.178-2.354c0.767-3.066-2.698-4.259-2.846-4.309l0,0
			c-1.249-0.416-2.66-0.128-3.564,0.83c-0.968,1.025-1.394,2.097-1.556,2.613l1.585,3.171C22.807,9.087,23.226,9.111,23.707,9.111
			L23.707,9.111z"/>
		<path fill="#4896C8" d="M27.385,7.257c0.767-3.066-2.698-4.259-2.846-4.309c-0.468-0.156-0.959-0.213-1.437-0.173
			c0.86-0.537,1.948-0.657,2.937-0.327c0.148,0.049,3.613,1.242,2.846,4.309c-0.32,1.279-1.592,1.879-2.92,2.149
			C26.653,8.552,27.192,8.028,27.385,7.257z"/>
		<path fill="#4390BF" d="M27.039,4.449c-0.115-0.039-0.233-0.065-0.351-0.091c-0.846-0.956-2.062-1.38-2.149-1.409
			c-0.468-0.156-0.959-0.213-1.437-0.173c0.86-0.537,1.948-0.657,2.937-0.327c0.128,0.043,2.751,0.949,2.942,3.191
			C28.156,4.837,27.118,4.475,27.039,4.449z"/>
		<path fill="#2B3332" d="M22.474,3.278c0.245-0.259,0.529-0.465,0.835-0.625c-0.07,0.041-0.142,0.082-0.208,0.123
			c0.478-0.04,0.969,0.017,1.437,0.173c0.086,0.029,1.303,0.453,2.149,1.409c-1.156-0.26-2.393,0.052-3.213,0.921
			c-0.968,1.025-1.394,2.096-1.556,2.613l-1-2C21.081,5.375,21.507,4.303,22.474,3.278z"/>
		<path fill="#434C4B" d="M8.293,9.111c-1.714,0-4.666-0.306-5.178-2.354C2.349,3.691,5.813,2.498,5.961,2.449l0,0
			c1.249-0.416,2.66-0.128,3.564,0.83c0.968,1.025,1.394,2.097,1.556,2.613L9.496,9.062C9.193,9.087,8.774,9.111,8.293,9.111
			L8.293,9.111z"/>
		<path fill="#529CCF" d="M4.615,7.257C3.849,4.191,7.313,2.998,7.461,2.949C7.93,2.793,8.42,2.736,8.899,2.776
			c-0.86-0.537-1.948-0.657-2.937-0.327C5.813,2.498,2.349,3.691,3.115,6.757c0.32,1.279,1.592,1.879,2.92,2.149
			C5.347,8.552,4.808,8.028,4.615,7.257z"/>
		<path fill="#4896C8" d="M4.961,4.449C5.077,4.41,5.195,4.384,5.312,4.358c0.846-0.956,2.062-1.38,2.149-1.409
			C7.93,2.793,8.42,2.736,8.899,2.776c-0.86-0.537-1.948-0.657-2.937-0.327C5.833,2.492,3.211,3.398,3.019,5.64
			C3.844,4.837,4.882,4.475,4.961,4.449z"/>
		<path fill="#373F3F" d="M9.526,3.278C9.281,3.019,8.997,2.813,8.691,2.653c0.07,0.041,0.142,0.082,0.208,0.123
			C8.42,2.736,7.93,2.793,7.461,2.949C7.375,2.978,6.158,3.401,5.312,4.358c1.156-0.26,2.393,0.052,3.213,0.921
			c0.968,1.025,1.394,2.096,1.556,2.613l1-2C10.919,5.375,10.493,4.303,9.526,3.278z"/>
		<path fill="#F7F7F7" d="M20.978,8.595c0.472,0.527,0.571,1.366,0.418,2.02C21.343,10.841,21.14,11,20.908,11l-2.404,0
			c-0.402,0-0.645-0.452-0.415-0.781c0.47-0.674,1.394-1.441,2.373-1.75C20.644,8.411,20.851,8.453,20.978,8.595z"/>
		<path fill="#8EC0E0" d="M10.379,14.345L9.068,15.14c-1.832,1.112-2.753,3.267-2.288,5.36l0.777,3.496
			c0.244,1.098,1.346,1.779,2.437,1.506l0.242-0.06c1.001-0.25,1.648-1.221,1.492-2.242L10.379,14.345z"/>
		<path fill="#7FB8E0" d="M21.621,14.345l1.311,0.795c1.832,1.112,2.753,3.267,2.288,5.36l-0.777,3.496
			c-0.244,1.098-1.346,1.779-2.437,1.506l-0.242-0.06c-1.001-0.25-1.648-1.221-1.492-2.242L21.621,14.345z"/>
		<path fill="#D2E6F3" d="M16,16.5V13c0.701,0,1.791,0.62,3,0.398c1.252-0.23,2.643-0.613,3.848-1.217
			C22.064,15.663,17.574,16.5,16,16.5z"/>
		<path fill="#E2EFF7" d="M16,16.5V13c-0.701,0-1.791,0.62-3,0.398c-1.252-0.23-2.643-0.613-3.848-1.217
			C9.936,15.663,14.426,16.5,16,16.5z"/>
		<path fill="#FFFFFF" d="M11.038,8.577c-0.486,0.525-0.59,1.376-0.434,2.038C10.657,10.841,10.86,11,11.092,11l2.404,0
			c0.405,0,0.644-0.455,0.411-0.786c-0.475-0.678-1.407-1.448-2.392-1.752C11.35,8.41,11.156,8.45,11.038,8.577z"/>
		<path fill="#2B3332" d="M20.022,8.648c-0.804,0.368-1.526,0.998-1.927,1.564C17.861,10.544,18.1,11,18.505,11l1.399,0
			c0.234,0,0.439-0.159,0.492-0.387C20.544,9.981,20.455,9.176,20.022,8.648z"/>
		<path fill="#373F3F" d="M11.978,8.648c-0.432,0.528-0.522,1.332-0.374,1.965C11.657,10.841,11.862,11,12.095,11l1.399,0
			c0.406,0,0.644-0.456,0.41-0.787C13.504,9.646,12.781,9.016,11.978,8.648z"/>
		<path fill="#9FC9E4" d="M16,2.401c-0.159,0-0.317,0.074-0.416,0.223L14,5c0,0,1,1,2,1V2.401z"/>
		<path fill="#8EC0E0" d="M18,5l-1.584-2.376C16.317,2.476,16.159,2.401,16,2.401V6C17,6,18,5,18,5z"/>
	</g>
</g>
<g id="labels">
</g>
</svg>
